X:188
T:Dark Peak Polka
C:Brian Peters
M:2/4
L:1/8
Q:1/8=100
K:Am
c2 A2 e2 A2 | c2 A2 AG A2 | B2 G2 GA B2 | d2 A2 AG A2 |
c2 A2 e2 A2 | c2 A2 AG A2 | B2 G2 BdcB | A2 A2 A4 :||:
a2 ce a2 a2 | g2 Bd g2 g2 | a2 ce a2 a2 | g2 ^f2 e4 |
a2 ce a2 a2 | g2 Bd g2 g2 | a2 e2 e3 d | c2 B2 A4 :||
